!!!OTL: 1316. Die hungersnoth (um 1760?).
!!!ARE: Europa, Mitteleuropa, Deutschland, Schlesien, Neisse, Waltdorf
!!!SCT: E1316
!!!TXL: @@DE
!!!YEM: Copyright 1995, estate of Helmut Schaffrath.
**kern	**text
*ICvox	*
*M4/4	*
*met(c)	*
*k[b-]	*
*F:	*
!LO:TX:a:t=Wehmüthig langſam.	!
!LO:TX:a:t=Mündlich aus Waltdorf bei Neiße.	!
{4c	Wir
=1	=1
4f	ha-
8f	-ben
8g	im
8aL	Fel-
8gJ	.
8a	-de
8b-/	ge-
=2	=2
2cc	-ſtan-
4a}	-den
{4cc	kein
=3	=3
4dd	Biſ-
4cc	-ſen
8b-L	Brot
8ddJ	.
8ccL	vor-
8b-J	.
=4	=4
2a	-han-
4g;}	-den,
{8fL	's_war
8gJ	.
=5	=5
4a	gro-
8ccL	-ße
8b-J	.
4a	Hun-
4g	-gers-
=6	=6
2f}	-noth,
{2g	'swar
=7	=7
4a	gro-
8ccL	-ße
8b-J	.
4a	Hun-
4cc	-gers-
=8	=8
2.a}	-noth.
==	==
!!!AGN: Staende -, Soldaten -, Kriegs - Lied
!!!ONB: ESAC (Essen Associative Code) Database: ERK3
!!!AMT: simple quadruple
!!!AIN: vox
!!!EED: Helmut Schaffrath
!!!EEV: 1.0
!!!GTL: Staendelieder (Berufslieder). 1. Soldaten- und Kriegslieder. Soldatenlieder seit dem 30jaehr. Kriege.
!!!URL-scan: https://rosdok.uni-rostock.de/mcrviewer/recordIdentifier/rosdok_ppn745177999/iview2/phys_0204.iview2?x=-128.77276441889308&y=2040.3103958595311&scale=0.5870222003877485&rotation=0&layout=singlePageLayout
!!!ENC: Anna Maria Matuszewska
!!!EEV: 2024/12/27
*-	*-
